org.knime.js.pagebuilder/src/assets/executable-plot.svg

<svg xmlns="http://www.w3.org/2000/svg" viewBox="0 0 93 93" stroke="#000" fill="none" stroke-linejoin="round">
    <path d="M82.667 15.4502H77.667V29.4012H82.667V15.4502Z" stroke-miterlimit="10" stroke-linejoin="round"/>
    <path d="M64.333 26.5078H59.333V32.2948H64.333V26.5078Z" stroke-miterlimit="10" stroke-linejoin="round"/>
    <path d="M64.333 23.6152H59.333V26.5082H64.333V23.6152Z" stroke-miterlimit="10" stroke-linejoin="round"/>
    <path d="M73.5 26.9312H68.5V32.2952H73.5V26.9312Z" stroke-miterlimit="10" stroke-linejoin="round"/>
    <path d="M82.667 10.3218H77.667V15.4498H82.667V10.3218Z" stroke-miterlimit="10" stroke-linejoin="round"/>
    <path d="M73.5 22.0898H68.5V26.9308H73.5V22.0898Z" stroke-miterlimit="10" stroke-linejoin="round"/>
    <path d="M82.667 29.4019H77.667V32.2949H82.667V29.4019Z" stroke-miterlimit="10" stroke-linejoin="round"/>
    <path d="M64.333 16.3691H59.333V23.6151H64.333V16.3691Z" stroke-miterlimit="10" stroke-linejoin="round"/>
    <path d="M85.0701 35.6782H56.9301" stroke-miterlimit="10" stroke-linejoin="round"/>
    <path d="M60 79.9998L70 69.9998V56.3848" stroke-miterlimit="10" stroke-linejoin="round"/>
    <path d="M83.615 70H70.142" stroke-miterlimit="10" stroke-linejoin="round"/>
    <path d="M70 83.6148C77.5194 83.6148 83.615 77.5191 83.615 69.9998C83.615 62.4804 77.5194 56.3848 70 56.3848C62.4807 56.3848 56.385 62.4804 56.385 69.9998C56.385 77.5191 62.4807 83.6148 70 83.6148Z" stroke-miterlimit="10" stroke-linejoin="round"/>
    <path d="M11.5 57V82" stroke-miterlimit="10" stroke-linejoin="round"/>
    <path d="M11 81.5H36" stroke-miterlimit="10" stroke-linejoin="round"/>
    <line stroke-linecap="round" x1="0" y1="0" x2="0" y2="0" transform="translate (20,62) scale(1.6)" stroke-width="1.5%"/>
    <line stroke-linecap="round" x1="0" y1="0" x2="0" y2="0" transform="translate (30.5,58.5) scale(1.6)" stroke-width="1.5%"/>
    <line stroke-linecap="round" x1="0" y1="0" x2="0" y2="0" transform="translate (25.5,64.5) scale(1.6)" stroke-width="1.5%"/>
    <line stroke-linecap="round" x1="0" y1="0" x2="0" y2="0" transform="translate (33.5,63.5) scale(1.6)" stroke-width="1.5%"/>
    <line stroke-linecap="round" x1="0" y1="0" x2="0" y2="0" transform="translate (30.5,67.5) scale(1.6)" stroke-width="1.5%"/>
    <line stroke-linecap="round" x1="0" y1="0" x2="0" y2="0" transform="translate (20.5,67.5) scale(1.6)" stroke-width="1.5%"/>
    <line stroke-linecap="round" x1="0" y1="0" x2="0" y2="0" transform="translate (17.5,71.5) scale(1.6)" stroke-width="1.5%"/>
    <line stroke-linecap="round" x1="0" y1="0" x2="0" y2="0" transform="translate (14.5,76.5) scale(1.6)" stroke-width="1.5%"/>
    <path d="M23 9.65283L8.966 19.8488L14.327 36.3468H31.673L37.034 19.8488L23 9.65283Z" stroke-miterlimit="10" stroke-linejoin="round"/>
    <path d="M37.034 19.8488L23 23.9248V9.65283" stroke-miterlimit="10" stroke-linejoin="round"/>
    <path d="M31.673 36.3471L23 23.9251L14.327 36.3471L8.966 19.8491L23 23.9251" stroke-miterlimit="10" stroke-linejoin="round"/>
    <path d="M23 15.6592L15.365 21.7082L17.884 31.2522L28.143 31.4882L34.522 20.5792L23 15.6592Z" stroke-miterlimit="10" stroke-linejoin="round"/>
    <line y1="46.5" x2="93" y2="46.5" />
    <line x1="46.5" y1="2.18557e-08" x2="46.5" y2="93" />
</svg>

<svg xmlns="http://www.w3.org/2000/svg" fill="none" stroke="#000" stroke-linejoin="round" viewBox="0 0 93 93">
  <path stroke-miterlimit="10" d="M82.667 15.45h-5v13.951h5v-13.95zM64.333 26.508h-5v5.787h5v-5.787zm0-2.893h-5v2.893h5v-2.893zm9.167 3.316h-5v5.364h5v-5.364zm9.167-16.609h-5v5.128h5v-5.128zM73.5 22.09h-5v4.84h5v-4.84zm9.167 7.312h-5v2.893h5v-2.893z"/>
  <path stroke-miterlimit="10" d="M64.333 16.37h-5v7.245h5V16.37zM85.07 35.678H56.93M60 80l10-10V56.385M83.615 70H70.142"/>
  <path stroke-miterlimit="10" d="M70 83.615c7.52 0 13.615-6.096 13.615-13.615 0-7.52-6.096-13.615-13.615-13.615-7.52 0-13.615 6.095-13.615 13.615 0 7.52 6.096 13.615 13.615 13.615zM11.5 57v25m-.5-.5h25"/>
  <path stroke-linecap="round" stroke-width="2.4%" d="M20 62h0m10.5-3.5h0m-5 6h0m8-1h0m-3 4h0m-10 0h0m-3 4h0m-3 5h0"/>
  <path stroke-miterlimit="10" d="M23 9.653 8.966 19.849l5.361 16.498h17.346l5.361-16.498L23 9.653z"/>
  <path stroke-miterlimit="10" d="M37.034 19.849 23 23.925V9.653m8.673 26.694L23 23.925l-8.673 12.422L8.966 19.85 23 23.925"/>
  <path stroke-miterlimit="10" d="m23 15.66-7.635 6.048 2.519 9.544 10.259.236 6.379-10.909L23 15.66z"/>
  <path d="M0 46.5h93M46.5 0v93"/>
</svg>
